public/img/partner-section-1.svg

<svg width="93" height="123" viewBox="0 0 93 123" fill="none" xmlns="http://www.w3.org/2000/svg">
<path d="M65.4844 62.6865V74.1562H27.5156V62.6865L33.8438 61.5V42.5156H59.1562V61.5L65.4844 62.6865Z" fill="#FEC9A3"/>
<path d="M92.9062 78.3302V114.234H0.09375V78.3328C0.0935709 75.3809 1.12525 72.5217 3.0103 70.25C4.89535 67.9783 7.51517 66.437 10.4165 65.8928L33.8438 61.5L46.5 65.7188L59.1562 61.5L82.5835 65.8928C85.4854 66.4349 88.1062 67.9752 89.9915 70.2468C91.8769 72.5184 92.9081 75.3781 92.9062 78.3302Z" fill="#4D5E78"/>
<path d="M92.9071 78.3302V114.234H31.5059C53.6965 103.775 73.3769 88.6556 86.8901 67.5539C88.7294 68.6873 90.248 70.2726 91.3013 72.1589C92.3545 74.0452 92.9073 76.1697 92.9071 78.3302Z" fill="#44546C"/>
<path d="M33.8438 61.5L46.5 110.016L59.1562 61.4992L46.5 65.7187L33.8438 61.5Z" fill="#B0B0AE"/>
<path d="M59.1562 61.4992L46.5 65.7188L56.0602 73.3671L59.1562 61.4992Z" fill="#E0E0DE"/>
<path d="M46.5 65.7188L33.8438 61.5L36.9395 73.3671L46.5 65.7188Z" fill="#E0E0DE"/>
<path d="M50.7188 93.8436V69.0937L46.5 65.7188L42.2812 69.0937V93.8438L46.5 110.016L50.7188 93.8436Z" fill="#348FD9"/>
<path d="M29.625 80.4844L27.5156 88.9219L46.5 110.016L33.8438 61.5L25.4062 63.082L19.0781 78.375L29.625 80.4844Z" fill="#556A8A"/>
<path d="M63.375 80.4844L65.4844 88.9219L46.5 110.016L59.1562 61.5L67.5938 63.082L73.9219 78.375L63.375 80.4844Z" fill="#556A8A"/>
<path d="M16.9688 86.8125H21.1875V112.125H16.9688V86.8125Z" fill="#313B4C"/>
<path d="M71.8125 86.8125H76.0312V112.125H71.8125V86.8125Z" fill="#313B4C"/>
<path d="M80.25 91.0312H92.9062V110.016L82.3594 110.015L69.6607 111.829L67.5938 97.3594L80.25 91.0312Z" fill="#FEC9A3"/>
<path d="M57.7899 97.9711L60.2136 113.728L19.0781 122.672H6.42188C4.74355 122.672 3.13397 122.005 1.94721 120.818C0.76046 119.632 0.09375 118.022 0.09375 116.344V101.578L57.7899 97.9711Z" fill="#404F66"/>
<path d="M69.6598 111.829L67.5929 112.125L60.2127 113.728L57.7891 97.9711L67.5929 97.3594L69.6598 111.829Z" fill="#E0E0DE"/>
<path d="M12.75 91.0312H0.09375V110.016L10.6406 110.015L23.3393 111.829L25.4062 97.3594L12.75 91.0312Z" fill="#FEC9A3"/>
<path d="M39.8061 98.2585L38.6117 114.996L25.407 112.125L23.3398 111.83L25.407 97.3594L39.8061 98.2585Z" fill="#E0E0DE"/>
<path d="M35.2098 97.9722L33.8438 116.344L73.9219 122.672H86.5781C88.2564 122.672 89.866 122.005 91.0528 120.818C92.2395 119.632 92.9062 118.022 92.9062 116.344V101.578L35.2098 97.9722Z" fill="#4D5E78"/>
<path d="M42.2812 107.906H46.5V112.125H42.2812V107.906Z" fill="#313B4C"/>
<path d="M50.7188 107.906H54.9375V112.125H50.7188V107.906Z" fill="#313B4C"/>
<path d="M59.1562 54.5304V42.5156H46.5H33.8438V54.5304C37.316 57.6606 41.8251 59.393 46.5 59.393C51.1749 59.393 55.684 57.6606 59.1562 54.5304Z" fill="#FEB784"/>
<path d="M65.4844 21.4219V34.0781C67.1627 34.0781 68.7723 33.4114 69.959 32.2247C71.1458 31.0379 71.8125 29.4283 71.8125 27.75C71.8125 26.0717 71.1458 24.4621 69.959 23.2753C68.7723 22.0886 67.1627 21.4219 65.4844 21.4219Z" fill="#FEB784"/>
<path d="M27.6218 21.4219H27.5163C25.838 21.4217 24.2283 22.0882 23.0414 23.2749C21.8546 24.4615 21.1877 26.071 21.1875 27.7493C21.1873 29.4277 21.8539 31.0373 23.0405 32.2242C24.2271 33.4111 25.8366 34.078 27.515 34.0781V21.4219H27.6218Z" fill="#FEB784"/>
<path d="M65.4844 19.3125V36.1875C65.4838 41.2022 63.4994 46.0131 59.9643 49.5699C56.4292 53.1267 51.6306 55.1405 46.616 55.1719H46.5C41.4652 55.1715 36.6367 53.1712 33.0765 49.611C29.5163 46.0508 27.516 41.2223 27.5156 36.1875V19.3125C27.5156 8.82891 36.0164 2.4375 46.5 2.4375H46.616C51.813 2.46123 56.5143 4.05645 59.9235 6.94365C63.3592 9.85195 65.4844 14.0707 65.4844 19.3125Z" fill="#FEC9A3"/>
<path d="M65.4836 19.3125V36.1875C65.483 41.2022 63.4986 46.0131 59.9635 49.5699C56.4285 53.1267 51.6299 55.1405 46.6152 55.1719C49.4294 53.1344 51.7198 50.4582 53.2985 47.3633C54.8771 44.2684 55.6988 40.843 55.6961 37.3687V20.238C55.6988 16.7641 54.8771 13.3391 53.2984 10.2446C51.7198 7.15013 49.4293 4.47445 46.6152 2.4375C51.8122 2.46123 56.5135 4.05645 59.9228 6.94365C63.3584 9.85195 65.4836 14.0707 65.4836 19.3125Z" fill="#FEC093"/>
<path d="M37.0078 27.75C38.7553 27.75 40.1719 26.3334 40.1719 24.5859C40.1719 22.8385 38.7553 21.4219 37.0078 21.4219C35.2603 21.4219 33.8438 22.8385 33.8438 24.5859C33.8438 26.3334 35.2603 27.75 37.0078 27.75Z" fill="#7A432A"/>
<path d="M55.9922 27.75C57.7397 27.75 59.1562 26.3334 59.1562 24.5859C59.1562 22.8385 57.7397 21.4219 55.9922 21.4219C54.2447 21.4219 52.8281 22.8385 52.8281 24.5859C52.8281 26.3334 54.2447 27.75 55.9922 27.75Z" fill="#7A432A"/>
<path d="M44.0982 40.4062H40.1719V36.1875H44.0982C46.9862 36.1875 49.7814 35.5241 51.7653 34.3666L53.891 38.0084C51.2419 39.5554 47.7656 40.4062 44.0982 40.4062Z" fill="#F7A468"/>
<path d="M65.4844 25.6406V17.2031C65.4844 10.2132 60.7623 4.54688 54.9375 4.54688L55.3087 5.88316C57.3765 13.3271 60.8604 20.0919 65.4844 25.6406Z" fill="#6E3C24"/>
<path d="M27.5156 25.6406V11.1347C27.5156 10.1028 27.7508 9.08441 28.2033 8.15698C28.6559 7.22955 29.3138 6.41745 30.1272 5.78237C30.9406 5.1473 31.888 4.70596 32.8975 4.49188C33.907 4.2778 34.952 4.29661 35.9531 4.54688V10.875C35.9531 10.875 32.1396 20.0919 27.5156 25.6406Z" fill="#6E3C24"/>
<path d="M35.9531 10.875H65.4844C65.4844 9.48996 65.2116 8.11849 64.6815 6.83889C64.1515 5.55928 63.3746 4.3966 62.3953 3.41723C61.4159 2.43787 60.2532 1.66099 58.9736 1.13096C57.694 0.600928 56.3225 0.328125 54.9375 0.328125H46.138C44.2465 0.328119 42.3735 0.70068 40.626 1.42453C38.8784 2.14839 37.2906 3.20936 35.9531 4.54688V10.875Z" fill="#7A432A"/>
<path d="M47.9715 0.328125L39.7871 10.875H45.1291L53.3135 0.328125H47.9715Z" fill="#6E3C24"/>
<path d="M62.8026 3.90983C61.8534 2.83174 60.6935 1.95944 59.3943 1.34668L49.6973 10.875H55.7153L62.8026 3.90983Z" fill="#6E3C24"/>
</svg>

<svg width="93" height="123" fill="none" xmlns="http://www.w3.org/2000/svg"><path d="M65.484 62.687v11.47H27.516v-11.47l6.328-1.187V42.516h25.312V61.5l6.328 1.187z" fill="#FEC9A3"/><path d="M92.906 78.33v35.904H.094V78.333a12.656 12.656 0 0110.322-12.44L33.844 61.5 46.5 65.719 59.156 61.5l23.428 4.393A12.644 12.644 0 0192.906 78.33z" fill="#4D5E78"/><path d="M92.907 78.33v35.904H31.506c22.19-10.459 41.87-25.578 55.384-46.68a12.658 12.658 0 016.017 10.776z" fill="#44546C"/><path d="M33.844 61.5L46.5 110.016l12.656-48.517L46.5 65.72 33.844 61.5z" fill="#B0B0AE"/><path d="M59.156 61.5L46.5 65.718l9.56 7.648L59.156 61.5zM46.5 65.719L33.844 61.5l3.096 11.867 9.56-7.648z" fill="#E0E0DE"/><path d="M50.719 93.844v-24.75L46.5 65.719l-4.219 3.375v24.75l4.219 16.172 4.219-16.172z" fill="#348FD9"/><path d="M29.625 80.484l-2.11 8.438L46.5 110.016 33.844 61.5l-8.438 1.582-6.328 15.293 10.547 2.11zm33.75 0l2.11 8.438L46.5 110.016 59.156 61.5l8.438 1.582 6.328 15.293-10.547 2.11z" fill="#556A8A"/><path d="M16.969 86.813h4.218v25.312H16.97V86.812zm54.844 0h4.218v25.312h-4.219V86.812z" fill="#313B4C"/><path d="M80.25 91.031h12.656v18.985l-10.547-.001-12.698 1.814-2.067-14.47 12.656-6.328z" fill="#FEC9A3"/><path d="M57.79 97.971l2.424 15.757-41.136 8.944H6.422a6.328 6.328 0 01-6.328-6.328v-14.766l57.696-3.607z" fill="#404F66"/><path d="M69.66 111.829l-2.067.296-7.38 1.603-2.424-15.757 9.804-.612 2.067 14.47z" fill="#E0E0DE"/><path d="M12.75 91.031H.094v18.985l10.547-.001 12.698 1.814 2.067-14.47-12.656-6.328z" fill="#FEC9A3"/><path d="M39.806 98.258l-1.194 16.738-13.205-2.871-2.067-.295 2.067-14.47 14.4.898z" fill="#E0E0DE"/><path d="M35.21 97.972l-1.366 18.372 40.078 6.328h12.656a6.328 6.328 0 006.328-6.328v-14.766L35.21 97.972z" fill="#4D5E78"/><path d="M42.281 107.906H46.5v4.219h-4.219v-4.219zm8.438 0h4.218v4.219H50.72v-4.219z" fill="#313B4C"/><path d="M59.156 54.53V42.516H33.844V54.53a18.902 18.902 0 0025.312 0zm6.328-33.108v12.656a6.328 6.328 0 100-12.656zm-37.862 0h-.106a6.328 6.328 0 10-.001 12.656V21.422h.107z" fill="#FEB784"/><path d="M65.484 19.313v16.875a18.987 18.987 0 01-18.868 18.984H46.5a18.986 18.986 0 01-18.984-18.984V19.311c0-10.483 8.5-16.875 18.984-16.875h.116c5.197.024 9.898 1.62 13.307 4.507 3.436 2.908 5.561 7.127 5.561 12.369z" fill="#FEC9A3"/><path d="M65.484 19.313v16.875a18.987 18.987 0 01-18.869 18.984 21.959 21.959 0 009.081-17.803V20.238a21.953 21.953 0 00-9.08-17.8c5.196.023 9.898 1.618 13.307 4.506 3.435 2.908 5.56 7.127 5.56 12.369z" fill="#FEC093"/><path d="M37.008 27.75a3.164 3.164 0 100-6.328 3.164 3.164 0 000 6.328zm18.984 0a3.164 3.164 0 100-6.328 3.164 3.164 0 000 6.328z" fill="#7A432A"/><path d="M44.098 40.406h-3.926v-4.218h3.926c2.888 0 5.683-.664 7.667-1.821l2.126 3.641c-2.65 1.547-6.125 2.398-9.793 2.398z" fill="#F7A468"/><path d="M65.484 25.64v-8.437c0-6.99-4.722-12.656-10.546-12.656l.37 1.336c2.069 7.444 5.552 14.209 10.176 19.758zm-37.968 0V11.136a6.79 6.79 0 018.437-6.588v6.328s-3.813 9.217-8.437 14.766z" fill="#6E3C24"/><path d="M35.953 10.875h29.531A10.546 10.546 0 0054.938.328h-8.8a14.403 14.403 0 00-10.185 4.219v6.328z" fill="#7A432A"/><path d="M47.971.328l-8.184 10.547h5.342L53.313.328h-5.342zM62.803 3.91a10.52 10.52 0 00-3.409-2.563l-9.697 9.528h6.018l7.088-6.965z" fill="#6E3C24"/></svg>
